X: 132022
T: KENMURE'S ON AN' AWA WILLIE
Q: "Scotch Jig."
R: Jig.
%R: jig
B: James Kerr "Merry Melodies" v.1 p.32 s.0 #22
Z: 2016 John Chambers <jc:trillian.mit.edu>
M: 6/8
L: 1/8
K: G
uB |\
G>AB gdB | vd2vd ud2uB | G>AB gdB | A2A A2B |\
G>AB gdB | d>ef g>fe | dcB c>BA | G2G G2 :|
|: ud |\
g2d edB | d2d dba | g2d edB | A2A A2f |\
g2d edB | d>ef g>fe | dcB cBA | G2G G2 :|

%%sep 1 1 500
%%sep 1 1 500

